X:6075
T:Sckpipslt
A:Dalarna - Ns
C:e. Jont Lars Olsson
M:3/4
O:Sweden
R:Polska
Z:Carol Turner
%%TUNEURL: http://www.leeds.ac.uk/music/Info/RRTuneBk/gettune/00000c5c.html
%%ID:00000c5c
K:A min
E2 A>^G E>G| B2 d>B c2| e2 d>c B>A | ^G2 A4 ::
A2 e>c e>c| e2 e>d B2 | d2 d>B c>A| B2 B>^G E2|\
A2 A>^G E>G| B2 d>B c2 | e2 d>c B>A | ^G2 A4:|
